!!!!SEGMENT: pl-wtm--r-1041--002_kurpinski-karol-kazimierz--musique-du-medecin-turc-nr-2.krn
!!!cenid: 18xx:2167
!!!COM: Kurpiński, Karol Kazimierz
!!!COM-rismID: pe30018952
!!!CDT: 1785/03/06-1857/09/18
!!!CNT: Polish
!!!OTL: Musique du Medecin Turc - Nr 2
!!!PDT:
!!!AGN: Secular
!!!SMS-siglum: PL-Wtm
!!!SMS-shelfmark: R 1041
!!!SMS-shelfwork: 002 W
!!!SMS-variant:
!!!SMS-altvar:
!!!NIFC-rismSourceID: 1001084036
!!!NIFC-islandoraID:
!!!URL-pdf-islandora:
!!!URL-scan:
!!!ONB-nifc: UWAGA: skan 0008-0009
!!!OMD: Andantino
!!!AIN: 1 tambn 1 violn
!!!key:
**kern	**kern	**dynam
*part2	*part1	*part1
*staff2	*staff1	*
*Itambn	*Ivioln	*
*I"Tambour debaſque	*I"Violino	*
*I'T:deb:	*I'Viol:	*
*clefG2	*clefG2	*
*k[]	*k[]	*
*a:	*a:	*
*M3/8	*M3/8	*
*>[A,B,B,C,D,E,D]	*>[A,B,B,C,D,E,D]	*>[A,B,B,C,D,E,D]
=1	=1	=1
*>A	*>A	*>A
*tremolo	*	*
!	!LO:TX:a:t=Danse de l`actrice avec du tambour de basque. / LO:TX:a:t=Cette actrice quoiqu`elle\nest en Turquie, mais elle est française,\nalors elle doit executer une danse française, est\n très elegante&colon;/	!
!	!LO:TX:b:t=Jei actrice joue du tambour de baſque ſans danser.	!
32Reet\LLL	(8a/L	.
32Ree\	.	.
32Ree\	.	.
32Ree\JJJ	.	.
*Xtremolo	*	*
8Ree\	8e/)	.
8Ree\	8a'/J	.
=2	=2	=2
.	16qqcc/	.
16.Ree\LL	16.b\LL	.
32Ree\K	32a\K	.
16.Ree\	16.b\	.
32Ree\JJk	32cc\JJk	.
8Ree\	8b\	.
=3	=3	=3
*tremolo	*	*
32Reet\LLL	(8a\L	.
32Ree\	.	.
32Ree\	.	.
32Ree\JJJ	.	.
*Xtremolo	*	*
8Ree\L	8cc\)	.
8Ree\J	8ee'\J	.
=4	=4	=4
*tremolo	*	*
32Reet\LLL	4ee^<\	.
32Ree\	.	.
32Ree\	.	.
32Ree\JJJ	.	.
*Xtremolo	*	*
8r	.	.
8r	8b\	.
=5	=5	=5
*tremolo	*	*
32Ree\LLL	(8dd\L	.
32Ree\	.	.
32Ree\	.	.
32Ree\JJJ	.	.
*Xtremolo	*	*
8Ree\	8a\)	.
8Ree\	8ee'\J	.
=6	=6	=6
.	32qqdd/LLL	.
.	32qqee/JJJ	.
8Ree\	8ff\	.
16Ree'\LL	16ee\LL	.
16Ree'\	16dd\	.
16Ree'\	16cc\	.
16Ree'\JJ	16b\JJ	.
=7	=7	=7
*tremolo	*	*
!	!LO:TX:a:t=P:problem=przekreślony obiegnik	!
32Reet\LLL	8as$SS\L	.
32Ree\	.	.
32Ree\	.	.
32Ree\JJJ	.	.
*Xtremolo	*	*
8Ree\L	8cc\	.
8Ree\J	8b\J	.
=8	=8	=8
8Ree\	8a\	.
16r	16r	.
16Ree\LL	16a\LL	.
16Ree\	16a\	.
16Ree\JJ	16a\JJ	.
=9	=9	=9
.	32qqa/LLL	.
.	32qqb/JJJ	.
*rscale:2	*	*
64Ree\LLLL	(8cc^<\L	.
64Ree\	.	.
64Ree\	.	.
64ReeJJ	.	.
16Ree\JJ	.	.
*rscale:1	*	*
16r	16a\L)	.
16Ree\LL	16a\	.
16Ree\	16a\	.
16Ree\JJ	16a\JJ	.
=10	=10	=10
.	32qqa/LLL	.
.	32qqb/JJJ	.
*rscale:2	*	*
64Ree\LLLL	8cc^<\L	.
64Ree\	.	.
64Ree\	.	.
64ReeJJ	.	.
16Ree\JJ	.	.
*rscale:1	*	*
16r	16a\L	.
16Ree\LL	16a\	.
16Ree\	16a\	.
16Ree\JJ	16a\JJ	.
=11	=11	=11
*rscale:2	*	*
64Ree\LLLL	(16cc\LL	.
64Ree\	.	.
64Ree\	.	.
64Ree\JJ	.	.
16Ree\JJ	16a\)	.
*rep	*	*
64Ree\LLLL	(16cc\	.
64Ree\	.	.
64Ree\	.	.
64Ree\JJ	.	.
16Ree\JJ	16a\)	.
*Xrep	*	*
*rep	*	*
64Ree\LLLL	(16b\	.
64Ree\	.	.
64Ree\	.	.
64Ree\JJ	.	.
16Ree\JJ	16g#X\JJ)	.
*Xrep	*	*
*rscale:1	*	*
=12	=12	=12
8Ree\	(8a/L	.
16r	16e/L)	.
16Ree\LL	16a'/	.
16Ree\	16a'/	.
16Ree\JJ	16a'/JJ	.
!!LO:LB:g=original
=13	=13	=13
.	32qqa/LLL	.
.	32qqb/JJJ	.
*rscale:2	*	*
64Ree\LLLL	8cc^<\L	.
64Ree\	.	.
64Ree\	.	.
64ReeJJ	.	.
16Ree\JJ	.	.
*rscale:1	*	*
16r	16a\L	.
16Ree\LL	16a\	.
16Ree\	16a\	.
16Ree\JJ	16a\JJ	.
=14	=14	=14
.	32qqa/LLL	.
.	32qqb/JJJ	.
*rscale:2	*	*
64Ree\LLLL	8cc\L	.
64Ree\	.	.
64Ree\	.	.
64ReeJJ	.	.
16Ree\JJ	.	.
*rscale:1	*	*
16r	16a\L	.
16Ree\LL	16a\	.
16Ree\	16a\	.
16Ree\JJ	16a\JJ	.
=15	=15	=15
!LO:TX:t=P:problem=mixed beam	!	!
8Ree\L	(16cc\LL	.
.	16a\)	.
8Ree\	(16cc\	.
.	16a\)	.
8Re/J	(16b\	.
.	16g#X\JJ)	.
=16	=16	=16
4RA/	4a\	.
8r	8r	.
=17||	=17||	=17||
!	!LO:TX:b:t=/&colon;Elle chante&colon;/	!
!	!LO:TX:a:t=7	!
4.r	4.r	.
=18	=18	=18
4.r	4.r	.
=19	=19	=19
4.r	4.r	.
=20	=20	=20
4.r	4.r	.
=21	=21	=21
4.r	4.r	.
=22	=22	=22
4.r	4.r	.
=23	=23	=23
4.r	4.r	.
=24!|:	=24!|:	=24!|:
*>B	*>B	*>B
!!!OMD: 1er et 2de Couplet.
!	!LO:TX:b:t=/&colon;iei, elle danse avec gaitè sans toucher du tambour./	!
4.r	8r	.
.	16r	.
.	16e/LL	.
.	16f#X/	.
.	16g#X/JJ	.
=25	=25	=25
.	16qqb/	.
4.r	16a'/LL	.
.	16g#X'/	.
.	16a'/	.
.	16b'/	.
.	16cc'/	.
.	16dd'/JJ	.
=26	=26	=26
4.r	(16ee\LL	.
.	16dd#X\)	.
.	16ee'\	.
.	16ddn'\	.
.	16cc'\	.
.	16b'\JJ	.
=27	=27	=27
.	16qqb/	.
4.r	16a'/LL	.
.	16g#X'/	.
.	16a'/	.
.	16b'/	.
.	16cc'/	.
.	16dd'/JJ	.
=28	=28	=28
.	16qqb/LL	.
.	16qqcc/	.
.	16qqdd/JJ	.
4.r	4ee\	.
.	8e/	.
!!LO:LB:g=original
=29	=29	=29
4.r	(16a^>/LL	.
.	16g#X/	.
.	16a'/	.
.	16b'/	.
.	16cc'/	.
.	16dd'/JJ)	.
=30	=30	=30
4.r	(16ee\LL	.
.	16dd#X\)	.
.	16ee'\	.
.	16ddn'\	.
.	16cc'\	.
.	16b'\JJ	.
=31	=31	=31
4.r	8as$SS\L	.
.	8cc\	.
.	8b\J	.
=32	=32	=32
4.r	4a/	.
.	8r	.
=33||	=33||	=33||
!	!LO:TX:b:t=/&colon;Elle chante&colon;/	!
!	!LO:TX:a:t=11	!
4.r	4.r	.
=34	=34	=34
4.r	4.r	.
=35	=35	=35
4.r	4.r	.
=36	=36	=36
4.r	4.r	.
=37	=37	=37
4.r	4.r	.
=38	=38	=38
4.r	4.r	.
=39	=39	=39
4.r	4.r	.
=40	=40	=40
4.r	4.r	.
=41	=41	=41
4.r	4.r	.
=42	=42	=42
4.r	4.r	.
=43	=43	=43
4.r	4.r	.
=44||	=44||	=44||
!	!LO:TX:b:t=/&colon;ellè Danse&colon;/	!
4.r	8r	.
.	16r	.
.	16e'/LL	.
.	16f#X'/	.
.	16g#X'/JJ	.
=45	=45	=45
.	16qqb/	.
4.r	(16a/LL	.
.	16g#X/)	.
.	16a'/	.
.	16b'/	.
.	16cc'/	.
.	16dd'/JJ	.
=46	=46	=46
4.r	16ee'\LL	.
.	16dd#X'\	.
.	16ee'\	.
.	16ddn'\	.
.	16cc'\	.
.	16b'\JJ	.
=47	=47	=47
4.r	(16a\LL	.
.	16g#X\	.
.	16a\)	.
.	16b'\	.
.	16cc'\	.
.	16dd'\JJ	.
=48	=48	=48
4.r	16ee'\LL	.
.	16dd#X'\	.
.	16ee'\	.
.	16ddn'\	.
.	16cc'\	.
.	16b'\JJ	.
=49	=49	=49
4.r	8.cc/L	.
.	16e'/L	.
.	16a'/	.
.	16b'/JJ	.
!!LO:PB:g=original
=50	=50	=50
4.r	(16cc/LL	.
.	16b/	.
.	16a/	.
.	16g/	.
.	16f/	.
.	16e/JJ)	.
=51	=51	=51
4.r	16g/LL	.
.	16f/	.
.	16e/	.
.	16d/	.
.	16cc/	.
.	16b/JJ	.
=52	=52	=52
4.r	16a/LL	.
.	16g#X/	.
.	16b/	.
.	16f/	.
.	16e/	.
.	16d/JJ	.
=53	=53	=53
4.r	(8B/L	.
.	16d/L)	.
.	(16e/	.
.	16a/	.
.	16cc/JJ)	.
=54	=54	=54
4.r	(16ee\LL	.
.	16dd\	.
.	16cc\	.
.	16b\	.
.	16a\	.
.	16g\JJ)	.
=55	=55	=55
4.r	(16gg\LL	.
.	16ff\	.
.	16ee\	.
.	16dd\	.
.	16cc\	.
.	16b\JJ)	.
=56	=56	=56
4.r	(16cc\LL	.
.	16ee\)	.
.	(16a\	.
.	16cc\)	.
.	(16g#X\	.
.	16b\JJ)	.
=57||	=57||	=57||
!	!LO:TX:b:t=/&colon; elle joue du Tambour sans danser&colon;/	!
8r	8a/	.
16r	16r	.
16Ree\LL	16a/LL	.
16Ree\	16a/	.
16Ree\JJ	16a/JJ	.
=58	=58	=58
.	32qqa/LLL	.
.	32qqb/JJJ	.
64Ree\LLLL	8cc/L	.
64Ree\	.	.
64Ree\	.	.
64Ree\JJ	.	.
16Ree\JJ	.	.
16r	16a/L	.
16Ree\LL	16a/	.
16Ree\	16a/	.
16Ree\JJ	16a/JJ	.
=59	=59	=59
.	32qqa/LLL	.
.	32qqb/JJJ	.
*rscale:2	*	*
64Ree\LLLL	8cc/L	.
64Ree\	.	.
64Ree\	.	.
64Ree\JJ	.	.
16Ree\JJ	.	.
*rscale:1	*	*
16r	16a/L	.
16Ree\LL	16a/	.
16Ree\	16a/	.
16Ree\JJ	16a/JJ	.
=60	=60	=60
64Ree\LLLL	(16cc/LL	.
64Ree\	.	.
64Ree\	.	.
64Ree\JJ	.	.
16Ree\JJ	16a/)	.
*rep	*	*
64Ree\LLLL	(16cc/	.
64Ree\	.	.
64Ree\	.	.
64Ree\JJ	.	.
16Ree\JJ	16a/)	.
*Xrep	*	*
*rep	*	*
64Ree\LLLL	(16b/	.
64Ree\	.	.
64Ree\	.	.
64Ree\JJ	.	.
16Ree\JJ	16g#X/JJ)	.
*Xrep	*	*
!!LO:LB:g=original
=61	=61	=61
8Ree\	8a/L	.
16r	16e/L	.
16Ree\LL	16a/	.
16Ree\	16a/	.
16Ree\JJ	16a/JJ	.
=62	=62	=62
.	16qqa/LL	.
.	16qqb/JJ	.
64Ree\LLLL	8cc/L	.
64Ree\	.	.
64Ree\	.	.
64Ree\JJ	.	.
16Ree\JJ	.	.
16r	16a/L	.
16Ree\LL	16a/	.
16Ree\	16a/	.
16Ree\JJ	16a/JJ	.
=63	=63	=63
.	16qqa/LL	.
.	16qqb/JJ	.
64Ree\LLLL	8cc/L	.
64Ree\	.	.
64Ree\	.	.
64Ree\JJ	.	.
16Ree\JJ	.	.
16r	16a/L	.
16Ree\LL	16a/	.
16Ree\	16a/	.
16Ree\JJ	16a/JJ	.
=64	=64	=64
!LO:TX:t=P:problem=mixed beam	!	!
8Ree\L	(16cc/LL	.
.	16a/)	.
8Ree\	(16cc/	.
.	16a/)	.
8Re/J	(16b/	.
.	16g#X/JJ)	.
=65	=65	=65
4RA/	4a/	f
8r	8r	.
=66||	=66||	=66||
!	!LO:TX:b:t=Elle chante	!
!	!LO:TX:a:t=7	!
4.r	4.r	.
=67	=67	=67
4.r	4.r	.
=68	=68	=68
4.r	4.r	.
=69	=69	=69
4.r	4.r	.
=70	=70	=70
4.r	4.r	.
=71	=71	=71
4.r	4.r	.
=72	=72	=72
!	!LO:TX:a:t=dal Segno.	!
!LO:TX:t=[segno]:problem=znak segno na kresce taktowej	!LO:TX:t=[segno]:problem=znak segno na kresce taktowej	!
4.r	4.r	.
!!LO:LB:g=original
=73:|!	=73:|!	=73:|!
!!!OMD: Allo vivace
*>C	*>C	*>C
*k[f#]	*k[f#]	*
*M3/8	*M3/8	*
!	!LO:TX:b:t=/&colon;Elle chante&colon;/	!
!	!LO:TX:a:t=14	!
4.r	4.r	.
=74	=74	=74
4.r	4.r	.
=75	=75	=75
4.r	4.r	.
=76	=76	=76
4.r	4.r	.
=77	=77	=77
4.r	4.r	.
=78	=78	=78
4.r	4.r	.
=79	=79	=79
4.r	4.r	.
=80	=80	=80
4.r	4.r	.
=81	=81	=81
4.r	4.r	.
=82	=82	=82
4.r	4.r	.
=83	=83	=83
4.r	4.r	.
=84	=84	=84
4.r	4.r	.
=85	=85	=85
4.r	4.r	.
=86	=86	=86
!LO:TX:t=[segno]:problem=znak segno na kresce taktowej	!LO:TX:t=[segno]:problem=znak segno na kresce taktowej	!
4.r	4.r	.
=87||	=87||	=87||
*>D	*>D	*>D
!	!LO:TX:a:t=/&colon;la main ſuivant le cerde du tambour de baſque, faites sonner les grelots\n sans danser &colon;/	!
4.ReeTT\	4b/	.
.	8g/	.
=88	=88	=88
.	16qqdd/	.
4.ReeTT\	(16cc\LL	.
.	16b\	.
.	16cc\	.
.	16dd\JJ)	.
.	8cc'\	.
=89	=89	=89
.	16qqcc/	.
4.ReeTT\	(16b\LL	.
.	16a\	.
.	16b\	.
.	16cc\JJ)	.
.	8b'\	.
=90	=90	=90
4.ReeTT\	8a|\L	.
.	(16cc#X\L	.
.	16dd\	.
.	16ee\	.
.	16dd\JJ)	.
=91	=91	=91
4.ReeTT\	4b\	.
.	8g\	.
=92	=92	=92
.	16qqdd/	.
4.ReeTT\	(16cc\LL	.
.	16b\	.
.	16cc\	.
.	16dd\JJ)	.
.	8cc'\	.
=93	=93	=93
.	16qqcc/	.
4.ReeTT\	16b\LL	.
.	16a\	.
.	16b\	.
.	16cc\JJ	.
.	8b\	.
=94	=94	=94
4ReeTT\	4a\	.
8r	8r	.
=95||	=95||	=95||
!	!LO:TX:a:t=/&colon;iei elle fait de\npetits pas &colon;/	!
4.r	16b\LL	.
.	16b\	.
.	16b\	.
.	16b\J	.
.	8b^\J	.
=96	=96	=96
4.r	16dd\LL	.
.	16dd\	.
.	16dd\	.
.	16dd\J	.
.	8dd^\J	.
!!LO:LB:g=original
=97	=97	=97
4.r	16gg\LL	.
.	16gg\	.
.	16gg\	.
.	16gg\J	.
.	8gg^\J	.
=98	=98	=98
4.r	(32gg\LLL	.
.	32ff#\	.
.	32aa\	.
.	32ff#\JJ)	.
.	8dd'\J	.
!LO:TX:b:t=P:problem=fermata pod kreską taktową	!LO:TX:t=P:problem=fermata nad kreską taktową	!
.	8r;	.
=99||	=99||	=99||
*>E	*>E	*>E
!	!LO:TX:b:t=Elle chante	!
!	!LO:TX:a:t=18	!
4.r	4.r	.
=100	=100	=100
4.r	4.r	.
=101	=101	=101
4.r	4.r	.
=102	=102	=102
4.r	4.r	.
=103	=103	=103
4.r	4.r	.
=104	=104	=104
4.r	4.r	.
=105	=105	=105
4.r	4.r	.
=106	=106	=106
4.r	4.r	.
=107	=107	=107
4.r	4.r	.
=108	=108	=108
4.r	4.r	.
=109	=109	=109
4.r	4.r	.
=110	=110	=110
4.r	4.r	.
=111	=111	=111
4.r	4.r	.
=112	=112	=112
4.r	4.r	.
=113	=113	=113
4.r	4.r	.
=114	=114	=114
4.r	4.r	.
=115	=115	=115
4.r	4.r	.
=116	=116	=116
!	!LO:TX:a:t=d`al Segno.	!
!LO:TX:t=[segno]:problem=znak segno na kresce taktowej	!LO:TX:t=[segno]:problem=znak segno na kresce taktowej	!
4.r	4.r	.
==	==	==
*-	*-	*-
!!!system-decoration: {s1,s2}
!!!RDF**kern: > = above
!!!RDF**kern: < = below
!!!RDF**kern: | = vertical stroke
!!!ENC: Marta Lawrence
!!!END: 2021-05-29
!!!ENC: Tomasz Grochalski
!!!END: 2021-05-16
!!!YEC: Copyright 2022 Narodowy Instytut Fryderyka Chopina (https://polishscores.org)
!!!YEM: Licence CC BY 4.0 (https://creativecommons.org/licenses/by/4.0)
